images/yt.svg

<svg width="46" height="45" viewBox="0 0 46 45" fill="none" xmlns="http://www.w3.org/2000/svg">
<path fill-rule="evenodd" clip-rule="evenodd" d="M23 43C34.3218 43 43.5 33.8218 43.5 22.5C43.5 11.1782 34.3218 2 23 2C11.6782 2 2.5 11.1782 2.5 22.5C2.5 33.8218 11.6782 43 23 43ZM23 45C35.4264 45 45.5 34.9264 45.5 22.5C45.5 10.0736 35.4264 0 23 0C10.5736 0 0.5 10.0736 0.5 22.5C0.5 34.9264 10.5736 45 23 45Z" fill="#F13C6E"/>
<path d="M29.0749 15H16.1069C13.5626 15 11.5 17.1025 11.5 19.696V26.304C11.5 28.8975 13.5626 31 16.1069 31H29.0749C31.6192 31 33.6818 28.8975 33.6818 26.304V19.696C33.6818 17.1025 31.6192 15 29.0749 15ZM25.9593 23.3215L19.8938 26.2704C19.7321 26.3489 19.5454 26.2288 19.5454 26.0463V19.9643C19.5454 19.7792 19.737 19.6592 19.899 19.7429L25.9646 22.8761C26.1449 22.9692 26.1418 23.2328 25.9593 23.3215Z" fill="#F13C6E"/>
</svg>

<svg xmlns="http://www.w3.org/2000/svg" width="46" height="45" fill="none"><path fill="#F13C6E" fill-rule="evenodd" d="M23 43a20.5 20.5 0 1 0 0-41 20.5 20.5 0 0 0 0 41Zm0 2a22.5 22.5 0 1 0 0-45 22.5 22.5 0 0 0 0 45Z" clip-rule="evenodd"/><path fill="#F13C6E" d="M29.07 15H16.11c-2.55 0-4.61 2.1-4.61 4.7v6.6c0 2.6 2.06 4.7 4.6 4.7h12.97c2.55 0 4.61-2.1 4.61-4.7v-6.6c0-2.6-2.06-4.7-4.6-4.7Zm-3.11 8.32-6.07 2.95a.24.24 0 0 1-.34-.22v-6.09c0-.18.19-.3.35-.22l6.06 3.14c.18.09.18.35 0 .44Z"/></svg>
